X:1
T:Git Along, Little Dogies
M:6/8
L:1/8
K:C
 z4 z D| F3/2 D/2 D FFF| GGG DCC| E3/2 E/2 C FFF| G/2 G3/2 G C2 C|\
 E3/2 E/2 E FFF| GGG DCC| E2 C FFF| G/2 G3/2 G C2 G/2G/2| _B2 BB-G B/2B/2|\
 c3/2- d/2c/2 A/2 GFF| G2 G ccc| c/2 c3/2 c G2 C/2C/2| C2 CE-C C/2C/2|\
 G3/2- A/2G/2 E/2 DC C/2C/2|E-C C FFF| G3/2 G/2 G C2 z|
